static/img/menus/ico-alarm.svg

<svg width="16" height="16" viewBox="0 0 16 16" fill="none" xmlns="http://www.w3.org/2000/svg">
<path d="M2.92102 11L3.80002 2.794C3.88602 2.582 4.27169 2.388 4.95702 2.212C5.62322 2.09897 6.29589 2.02817 6.97102 2H8.98602C9.66115 2.02817 10.3338 2.09897 11 2.212C11.686 2.38867 12.0717 2.58267 12.157 2.794L13.079 11M5.00002 9.729L5.51402 4.911" stroke="currentColor" stroke-linecap="round" stroke-linejoin="round"/>
<mask id="path-2-inside-1_402_32" fill="white">
<path d="M13.501 12H2.50098C2.22483 12 2.00098 12.2239 2.00098 12.5C2.00098 12.7761 2.22483 13 2.50098 13H13.501C13.7771 13 14.001 12.7761 14.001 12.5C14.001 12.2239 13.7771 12 13.501 12Z"/>
</mask>
<path d="M2.50098 12V13H13.501V12V11H2.50098V12ZM13.501 12V13C13.2248 13 13.001 12.7761 13.001 12.5H14.001H15.001C15.001 11.6716 14.3294 11 13.501 11V12ZM14.001 12.5H13.001C13.001 12.2239 13.2248 12 13.501 12V13V14C14.3294 14 15.001 13.3284 15.001 12.5H14.001ZM13.501 13V12H2.50098V13V14H13.501V13ZM2.50098 13V12C2.77712 12 3.00098 12.2239 3.00098 12.5H2.00098H1.00098C1.00098 13.3284 1.67255 14 2.50098 14V13ZM2.00098 12.5H3.00098C3.00098 12.7761 2.77712 13 2.50098 13V12V11C1.67255 11 1.00098 11.6716 1.00098 12.5H2.00098Z" fill="currentColor" mask="url(#path-2-inside-1_402_32)"/>
<path d="M13.501 11.5H2.50098C1.94869 11.5 1.50098 11.9477 1.50098 12.5C1.50098 13.0523 1.94869 13.5 2.50098 13.5H13.501C14.0533 13.5 14.501 13.0523 14.501 12.5C14.501 11.9477 14.0533 11.5 13.501 11.5Z" stroke="currentColor"/>
</svg>

<svg xmlns="http://www.w3.org/2000/svg" width="16" height="16" fill="none" viewBox="0 0 16 16"><path stroke="currentColor" stroke-linecap="round" stroke-linejoin="round" d="M2.921 11 3.8 2.794q.13-.318 1.157-.582A16 16 0 0 1 6.971 2h2.015Q10 2.042 11 2.212q1.03.265 1.157.582L13.079 11M5 9.729l.514-4.818"/><mask id="a" fill="#fff"><path d="M13.501 12h-11a.5.5 0 0 0 0 1h11a.5.5 0 0 0 0-1"/></mask><path fill="currentColor" d="M2.501 12v1h11v-2h-11zm11 0v1a.5.5 0 0 1-.5-.5h2a1.5 1.5 0 0 0-1.5-1.5zm.5.5h-1a.5.5 0 0 1 .5-.5v2a1.5 1.5 0 0 0 1.5-1.5zm-.5.5v-1h-11v2h11zm-11 0v-1a.5.5 0 0 1 .5.5h-2a1.5 1.5 0 0 0 1.5 1.5zm-.5-.5h1a.5.5 0 0 1-.5.5v-2a1.5 1.5 0 0 0-1.5 1.5z" mask="url(#a)"/><path stroke="currentColor" d="M13.501 11.5h-11a1 1 0 1 0 0 2h11a1 1 0 1 0 0-2Z"/></svg>
